assets/Keycap 3/Flat/keycap_3_flat.svg

<svg width="32" height="32" viewBox="0 0 32 32" fill="none" xmlns="http://www.w3.org/2000/svg">
<path d="M2 6C2 3.79086 3.79086 2 6 2H26C28.2091 2 30 3.79086 30 6V26C30 28.2091 28.2091 30 26 30H6C3.79086 30 2 28.2091 2 26V6Z" fill="#00A6ED"/>
<path d="M14.2912 12.2248C14.5445 11.6993 15.0794 11.3428 15.6943 11.3428C16.5535 11.3428 17.25 12.0393 17.25 12.8985C17.25 13.5387 16.862 14.0919 16.3063 14.3298C15.5814 14.3974 14.947 14.9165 14.7675 15.664C14.5423 16.6016 15.1181 17.5443 16.0541 17.7728C16.0826 17.7811 16.1113 17.7888 16.1402 17.7957C16.7827 17.9871 17.25 18.5845 17.25 19.2871C17.25 20.1463 16.5535 20.8428 15.6943 20.8428C15.0023 20.8428 14.4116 20.3899 14.2112 19.7599C13.9181 18.8389 12.9339 18.3298 12.0129 18.6229C11.0919 18.9159 10.5829 19.9001 10.8759 20.8211C11.5251 22.8614 13.4344 24.3428 15.6943 24.3428C18.4865 24.3428 20.75 22.0793 20.75 19.2871C20.75 18.0748 20.3237 16.9631 19.6131 16.0928C20.3237 15.2225 20.75 14.1109 20.75 12.8985C20.75 10.1063 18.4865 7.84277 15.6943 7.84277C13.685 7.84277 11.953 9.01499 11.1383 10.705C10.7187 11.5757 11.0843 12.6217 11.9549 13.0413C12.8255 13.461 13.8715 13.0954 14.2912 12.2248Z" fill="white"/>
</svg>

<svg xmlns="http://www.w3.org/2000/svg" width="32" height="32" fill="none"><path fill="#00A6ED" d="M2 6a4 4 0 0 1 4-4h20a4 4 0 0 1 4 4v20a4 4 0 0 1-4 4H6a4 4 0 0 1-4-4V6Z"/><path fill="#fff" d="M14.291 12.225a1.556 1.556 0 1 1 2.015 2.105 1.75 1.75 0 0 0-.252 3.443l.086.023a1.558 1.558 0 0 1-.446 3.047 1.557 1.557 0 0 1-1.483-1.083 1.75 1.75 0 0 0-3.335 1.061 5.057 5.057 0 1 0 8.737-4.728 5.056 5.056 0 1 0-8.475-5.388 1.75 1.75 0 0 0 3.153 1.52Z"/></svg>
